X: 1
T: Battle Of Killiecrankie, The
M: 4/4
L: 1/8
R: barndance
K: Cmaj
C6 |: E>F | 
E<G-G>A G2 E2 | G>EG<A G2 E2 | G>FE>D CDE<F | G4 G2 E<G |
A3 c A2 G2 | A>GA>B A2 G<E | c2 cd e2 dc | A4 A2 e>g |
a2 g>e g2 e>d | e2 d>c e3 d | cBA<G c2 E2 | G4 G2 cB |
A2 GA c2 Ac | d2 cd e3 d | c>BA<G c2 E2 |1 D4 C2 :|
2 D4 C4 ||
e<g-g>a g2 e2 | g>ega g2 e2 | g>fe<d c>de<f | g4 g2 e<g |
a3 c' a2 g2 | a>ga>c' a2 g2 | a>ge<d c>de<g | a4 a2 a<c' |
g2 e>d e2 d>c | d2 c<d e3 d | c>BA<G c2 E2 | G4 G2 cB |
A2 GA c2 Ac | d2 cd e3 d | c>BA<G c2 E2 |1 D4 C4 :|
2 D4 C2 ||
